X:352
L:1/8
Q:1/4=90
M:6/8
K:F
 g | (f/g/a)g fcA | fcA f2 g | fag fcA | GAG B2 a | gfe gcA | FAc fcA | BgB AfA | GAG B2 :: d | 
 F(A/B/c) c(A/B/c) | fcA fcA | F(A/B/c) c(A/B/c) | dBG dBG | F(A/B/c) c(A/B/c) | afa geg | 
 fdf cAF"^bar line added" | GAG B2 :|

